assets/flags/rw.svg

<svg viewBox="0 0 1080 720" xmlns="http://www.w3.org/2000/svg" xmlns:xlink="http://www.w3.org/1999/xlink"><path d="m0 0h1080v720h-1080z" fill="#20603d"/><path d="m0 0h1080v540h-1080z" fill="#fad201"/><path d="m0 0h1080v360h-1080z" fill="#00a1de"/><g transform="translate(886.5 188.1)"><g id="a"><path id="b" d="m116.1 0-80.40798 4.69894 76.45197 25.34995-78.88433-16.27229 67.28589 44.2734-71.98483-36.13459 53.53438 60.17969-60.17969-53.53438 36.13459 71.98483-44.2734-67.28589 16.27229 78.88433-25.34995-76.45197-4.69894 80.40798-1-117.1z" fill="#e5be01"/><use transform="scale(1 -1)" xlink:href="#b"/></g><use transform="scale(-1 1)" xlink:href="#a"/><circle fill="#e5be01" r="34.3" stroke="#00a1de" stroke-width="3.4"/></g></svg>

<svg xmlns="http://www.w3.org/2000/svg" xmlns:xlink="http://www.w3.org/1999/xlink" viewBox="0 0 1080 720">
<rect width="1080" height="720" fill="#20603D"/>
<rect width="1080" height="540" fill="#FAD201"/>
<rect width="1080" height="360" fill="#00A1DE"/>
<g transform="translate(886.5,188.1)">
<g id="h">
<path id="q" fill="#E5BE01" d="M 116.10000,0.00000 L 35.69202,4.69894 112.14399,30.04889 33.25966,13.77660 100.54555,58.05000 28.56072,21.91541 82.09510,82.09510 21.91541,28.56072 58.05000,100.54555 13.77660,33.25966 30.04889,112.14399 4.69894,35.69202 0.00000,116.10000 -1,-1 z"/>
<use xlink:href="#q" transform="scale(1,-1)"/>
</g>
<use xlink:href="#h" transform="scale(-1,1)"/>
<circle r="34.3" fill="#E5BE01" stroke="#00A1DE" stroke-width="3.4"/>
</g>
</svg>
